icons/svgs/arrow-left-outline.svg

<svg width="24" height="24" viewBox="0 0 24 24" fill="none" xmlns="http://www.w3.org/2000/svg">
<path d="M3.52344 12.7031C3.32812 12.5078 3.25 12.2734 3.25 12C3.25 11.7656 3.32812 11.5313 3.52344 11.3359L10.3984 4.77345C10.7891 4.42188 11.375 4.42188 11.7266 4.81251C12.0781 5.16407 12.0781 5.78907 11.6875 6.14063L6.49219 11.0625H19.8125C20.3203 11.0625 20.75 11.4922 20.75 12C20.75 12.5469 20.3203 12.9375 19.8125 12.9375H6.49219L11.6875 17.8984C12.0781 18.25 12.0781 18.8359 11.7266 19.2266C11.375 19.6172 10.7891 19.6172 10.3984 19.2656L3.52344 12.7031Z" fill="black"/>
</svg>

<svg xmlns="http://www.w3.org/2000/svg" width="24" height="24" fill="currentColor" class="icon-arrow-left-outline" viewBox="0 0 24 24">
  <mask id="a" width="18" height="16" x="3" y="4" maskUnits="userSpaceOnUse" style="mask-type:alpha">
    <path d="M3.523 12.703c-.195-.195-.273-.43-.273-.703 0-.234.078-.469.273-.664l6.875-6.563c.391-.351.977-.351 1.329.04a.93.93 0 0 1-.04 1.328l-5.195 4.922h13.32a.95.95 0 0 1 .938.937c0 .547-.43.938-.937.938H6.493l5.195 4.96c.39.352.39.938.039 1.329-.352.39-.938.39-1.329.039z"/>
  </mask>
  <g mask="url(#a)">
    <path d="M0 0h24v24H0z"/>
  </g>
</svg>
